48x48/apps/navicat.svg

<svg xmlns="http://www.w3.org/2000/svg" width="48" height="48" version="1.1">
 <path style="opacity:0.2" d="m 35.972855,10.636503 c -1.75233,3.378872 -3.694917,6.436778 -5.59162,9.511239 L 23.999812,30 42.421876,29.9966 c 1.277943,-0.178754 1.985847,-1.328005 2.185975,-2.606859 1.408248,-8.936814 -1.179349,-13.434312 -4.527874,-17.104822 -1.558711,-1.6966914 -2.930734,-1.8437366 -4.106723,0.351825 z"/>
 <path style="opacity:0.2" d="M 23.625903,5.000746 C 17.422568,4.9420398 11.116178,8.3568509 7.9782308,12.3943 5.4020435,15.710265 3.4302055,19.055272 2.9999997,23.07654 h 0.00243 C 3.1098497,25.361413 4.2996721,26.884973 6.9935324,27 H 25.916665 l 1.166772,-8.424563 C 27.519155,15.422107 28.11526,12.248239 27.980635,9.0435679 27.872322,6.4794776 25.563027,5.0560086 23.625997,5.0012438 Z"/>
 <path style="opacity:0.2" d="m 24.407793,19.035471 c -3.814121,-0.202138 -8.169125,0.426736 -11.041786,2.738724 -2.870437,2.310423 -4.7999951,5.328858 -5.2780872,8.832057 -0.6218592,5.880569 2.0993742,9.371339 6.7593472,11.940334 10.338615,3.891183 20.510504,-0.531265 26.132623,-7.339495 1.930987,-2.389931 0.733074,-5.135966 -0.419564,-6.72496 -3.475147,-4.790776 -7.932027,-9.010888 -16.152901,-9.446551 z"/>
 <path style="fill:#228c1f" d="M 23.625903,4.0007459 C 17.422568,3.9420397 11.116178,7.3568508 7.9782308,11.3943 5.4020435,14.710265 3.4302055,18.055272 2.9999997,22.07654 h 0.00243 C 3.1098497,24.361413 4.2996721,25.884973 6.9935324,26 H 25.916665 l 1.166772,-8.424563 C 27.519155,14.422107 28.11526,11.248239 27.980635,8.0435678 27.872322,5.4794775 25.563027,4.0560085 23.625997,4.0012437 Z"/>
 <path style="fill:#228c1f" d="m 35.972855,9.636503 c -1.75233,3.378872 -3.694917,6.436778 -5.59162,9.511239 L 23.999812,29 42.421876,28.9966 c 1.277943,-0.178754 1.985847,-1.328005 2.185975,-2.606859 C 46.016099,17.452927 43.428502,12.955429 40.079977,9.2849188 38.521266,7.5882275 37.149243,7.4411823 35.973254,9.6367441 Z"/>
 <path style="fill:#f4f4f7;opacity:0.1" d="M 37.882812 8.0019531 C 37.197969 8.0275506 36.560651 8.5389379 35.972656 9.6367188 C 34.220326 13.015591 32.277562 16.073977 30.380859 19.148438 L 24 29 L 24.648438 29 L 30.380859 20.148438 C 32.277562 17.073977 34.220326 14.015591 35.972656 10.636719 C 37.148645 8.4411571 38.521367 8.5884648 40.080078 10.285156 C 42.715888 13.174418 44.871255 16.585781 44.986328 22.261719 C 45.11891 15.97776 42.867186 12.340265 40.080078 9.2851562 C 39.300723 8.4368106 38.567656 7.9763556 37.882812 8.0019531 z"/>
 <path style="fill:#6ccc32" d="m 24.407793,18.035471 c -3.814121,-0.202138 -8.169125,0.426736 -11.041786,2.738724 -2.870437,2.310423 -4.7999951,5.328858 -5.2780872,8.832057 -0.6218592,5.880569 2.0993742,9.371339 6.7593472,11.940334 10.338615,3.891183 20.510504,-0.531265 26.132623,-7.339495 1.930987,-2.389931 0.733074,-5.135966 -0.419564,-6.72496 -3.475147,-4.790776 -7.932027,-9.010888 -16.152901,-9.446551 z"/>
 <path style="fill:#f4f4f7;opacity:0.1" d="M 23.625 4 C 17.421665 3.9412938 11.116463 7.3570821 7.9785156 11.394531 C 5.4023283 14.710496 3.4302058 18.054904 3 22.076172 L 3.0019531 22.076172 C 3.0114159 22.277449 3.0398563 22.465278 3.0664062 22.654297 C 3.5862786 18.822429 5.494335 15.592069 7.9785156 12.394531 C 11.116463 8.3570822 17.421665 4.9412938 23.625 5 L 23.626953 5.0019531 C 25.563983 5.0567179 27.872156 6.4788785 27.980469 9.0429688 C 27.987638 9.2136256 27.985122 9.3842038 27.988281 9.5546875 C 27.999829 9.0516908 28.001662 8.5474521 27.980469 8.0429688 C 27.872156 5.4788784 25.563983 4.0567179 23.626953 4.0019531 L 23.625 4 z"/>
 <path style="fill:#f4f4f7;opacity:0.2" d="M 22.957031 18 C 19.529019 18.016563 15.878813 18.750448 13.365234 20.773438 C 10.494797 23.083861 8.5659827 26.10227 8.0878906 29.605469 C 8.0092174 30.349436 7.9842667 31.056122 8.0097656 31.726562 C 8.0222656 31.362805 8.0473152 30.989167 8.0878906 30.605469 C 8.5659827 27.10227 10.494797 24.083861 13.365234 21.773438 C 16.237895 19.46145 20.594082 18.833018 24.408203 19.035156 C 32.629077 19.470819 37.0854 23.691646 40.560547 28.482422 C 41.204234 29.36979 41.841822 30.62128 41.960938 31.966797 C 42.183034 30.2516 41.362095 28.587413 40.560547 27.482422 C 37.0854 22.691646 32.629077 18.470819 24.408203 18.035156 C 23.931438 18.009889 23.446747 17.997634 22.957031 18 z"/>
</svg>

<svg xmlns="http://www.w3.org/2000/svg" width="48" height="48"><path style="opacity:.2" d="M35.973 10.637c-1.752 3.378-3.695 6.436-5.592 9.51L24 30l18.422-.003c1.278-.18 1.986-1.328 2.186-2.607 1.408-8.937-1.18-13.435-4.528-17.105-1.559-1.697-2.93-1.844-4.107.352z"/><path style="opacity:.2" d="M23.626 5c-6.203-.058-12.51 3.357-15.648 7.394C5.402 15.71 3.43 19.055 3 23.077h.002C3.11 25.36 4.3 26.885 6.994 27h18.923l1.166-8.425c.436-3.153 1.032-6.327.898-9.531-.109-2.565-2.418-3.988-4.355-4.043z"/><path style="opacity:.2" d="M24.408 19.035c-3.814-.202-8.17.427-11.042 2.74-2.87 2.31-4.8 5.328-5.278 8.831-.622 5.88 2.1 9.372 6.76 11.94 10.338 3.892 20.51-.53 26.132-7.339 1.93-2.39.733-5.136-.42-6.725-3.475-4.79-7.932-9.01-16.153-9.446z"/><path style="fill:#228c1f" d="M23.626 4c-6.203-.058-12.51 3.357-15.648 7.394C5.402 14.71 3.43 18.055 3 22.077h.002C3.11 24.36 4.3 25.885 6.994 26h18.923l1.166-8.425c.436-3.153 1.032-6.327.898-9.531-.109-2.565-2.418-3.988-4.355-4.043z"/><path style="fill:#228c1f" d="M35.973 9.637c-1.752 3.378-3.695 6.436-5.592 9.51L24 29l18.422-.003c1.278-.18 1.986-1.328 2.186-2.607 1.408-8.937-1.18-13.435-4.528-17.105-1.559-1.697-2.93-1.844-4.107.352z"/><path style="fill:#f4f4f7;opacity:.1" d="M37.883 8.002c-.685.026-1.322.537-1.91 1.635-1.753 3.379-3.695 6.437-5.592 9.511L24 29h.648l5.733-8.852c1.897-3.074 3.84-6.132 5.592-9.511 1.176-2.196 2.548-2.049 4.107-.352 2.636 2.89 4.791 6.3 4.906 11.977.133-6.284-2.119-9.922-4.906-12.977-.78-.848-1.512-1.309-2.197-1.283z"/><path style="fill:#6ccc32" d="M24.408 18.035c-3.814-.202-8.17.427-11.042 2.74-2.87 2.31-4.8 5.328-5.278 8.831-.622 5.88 2.1 9.372 6.76 11.94 10.338 3.892 20.51-.53 26.132-7.339 1.93-2.39.733-5.136-.42-6.725-3.475-4.79-7.932-9.01-16.153-9.446z"/><path style="fill:#f4f4f7;opacity:.1" d="M23.625 4c-6.203-.059-12.509 3.357-15.646 7.395C5.402 14.71 3.43 18.055 3 22.076h.002c.01.201.038.39.064.578.52-3.832 2.428-7.062 4.913-10.26C11.116 8.358 17.422 4.942 23.625 5l.002.002c1.937.055 4.245 1.477 4.353 4.041.008.17.005.341.008.512.012-.503.014-1.008-.008-1.512-.108-2.564-2.416-3.986-4.353-4.041L23.625 4z"/><path style="fill:#f4f4f7;opacity:.2" d="M22.957 18c-3.428.017-7.078.75-9.592 2.773-2.87 2.31-4.799 5.33-5.277 8.832-.079.744-.104 1.451-.078 2.122.012-.364.037-.738.078-1.122.478-3.503 2.407-6.521 5.277-8.832 2.873-2.312 7.23-2.94 11.043-2.738 8.221.436 12.677 4.657 16.153 9.447.643.888 1.28 2.14 1.4 3.485.222-1.715-.599-3.38-1.4-4.485-3.476-4.79-7.932-9.011-16.153-9.447A25.144 25.144 0 0 0 22.957 18z"/></svg>
